X:21
T:The Rhythm Reel
R:reel
C:Jim McGraw
O:Co. Fermanagh, Ireland
S:http://www.cranfordpub.com/recordings/mcgraw.htm
D:Melodious Accord, Jim McGraw
Z:psc
H:One of the first reels I composed with a view to playing it for set dance sessions.
L:1/8
Q:366
M:C|
K:D
AG|FD D/D/D A,DFA|dcBA FDA,D|B,EED EFGB|edcAGECE|
FD D/D/D A,DFA|dcBA FDA,A|BG ~G2 edcA|GECE D2:|
|:ef|gB ~B2 GBgb|fA A/A/A FAd^d|eA A/A/A GABc|dfeg fdef|
gB ~B2 GBgb|fA A/A/A FDAf|edcB AF (3(GFE)|D2 C2 D2:|
